X: 1
T: Joey Beaton's
M: 4/4
L: 1/8
R: reel
K: Bmin
|:b|fBBA Bcde|fddc dfaf|eAA2 cAA2|(3f^ga ea cAAb|
fBBA Bcde|fddc dfaf|eAA2 cAA2|(3f^ga ec B3:|
|:d|BFBd BFBd|cAEA cAec|BFBd BFBd|cAec ~B3 c|
BFBd BFBd|cAEA cAec|defd faea|cAec B3:|
